X:54
T:La fille-soldat
R:Chanson
O:France
B:Le livre des Chansons (Henri Davenson) n°53
Z:<anamnese@caramail.com> -- http://anamnese.fr.st
M:6/8
L:1/8
Q:1/4=90
K:F
F A B c2 c | (d3/2c/d/c/) c3 | A B d c2 B/-A/ | G3-G zz |!
c f c A2 {BAG}A/c/ | (B3/2c/B/A/G3) | G B d d-c d/-c/ | A3-A zz |!
c f c A2 {BAG}A/c/ | (B3/2c/B/A/G3) | c d c c>B G/-A/ | F6 ||
W:La jeune citoyenne a perdu son amant,
W:N'est-ce pas bien dommage à l'âge de quinze ans ?
W:
W:Elle s'en va l'attendre à l'ombre de ces bois ;
W:Mais elle a beau l'attendre, son amant ne vient pas : /.../

